; generated by PrusaSlicer 2.5.0+win64 on 2022-11-19 at 16:57:52 UTC


;
;
; 

; external perimeters extrusion width = 0.45mm
; perimeters extrusion width = 0.45mm
; infill extrusion width = 0.45mm
; solid infill extrusion width = 0.45mm
; top infill extrusion width = 0.40mm
; first layer extrusion width = 0.42mm

M73 P0 R11
M73 Q0 S11
M201 X1000 Y1000 Z200 E5000 ; sets maximum accelerations, mm/sec^2
M203 X200 Y200 Z12 E120 ; sets maximum feedrates, mm / sec
M204 P1250 R1250 T1250 ; sets acceleration (P, T) and retract acceleration (R), mm/sec^2
M205 X8.00 Y8.00 Z0.40 E4.50 ; sets the jerk limits, mm/sec
M205 S0 T0 ; sets the minimum extruding and travel feed rate, mm/sec
M107
;TYPE:Custom
M862.3 P "MK3" ; printer model check
M862.1 P0.4 ; nozzle diameter check
M115 U3.11.0 ; tell printer latest fw version
G90 ; use absolute coordinates
M83 ; extruder relative mode
M104 S240 ; set extruder temp
M140 S85 ; set bed temp
M190 S85 ; wait for bed temp
M109 S240 ; wait for extruder temp
G28 W ; home all without mesh bed level
G80 ; mesh bed leveling

G1 Z0.2 F720
G1 Y-3 F1000 ; go outside print area
G92 E0
G1 X60 E9 F1000 ; intro line
G1 X100 E12.5 F1000 ; intro line

G92 E0
M221 S95

; Don't change E values below. Excessive value can damage the printer.
M907 E430 ; set extruder motor current
G21 ; set units to millimeters
G90 ; use absolute coordinates
M83 ; use relative distances for extrusion
M900 K0.08 ; Filament gcode LA 1.5
M900 K45 ; Filament gcode LA 1.0
M107
;LAYER_CHANGE
;Z:0.2
;HEIGHT:0.2
;BEFORE_LAYER_CHANGE
G92 E0.0
;0.2


G1 E-1 F2100
G1 Z.2 F720
;AFTER_LAYER_CHANGE
;0.2
G1 Z.4
G1 X101.516 Y100.39 F10800
G1 Z.2 F720
M73 P1 R11
M73 Q1 S11
G1 E1 F2100
M204 S800
;TYPE:Skirt/Brim
;WIDTH:0.42
G1 F1200
G1 X102.456 Y99.568 E.03916
G1 X103.433 Y99.037 E.03485
G1 X104.681 Y98.687 E.04065
G1 X105.5 Y98.623 E.02576
G1 X145.072 Y98.623 E1.24075
G1 X146.668 Y99.238 E.05364
G1 X149.181 Y101.519 E.1064
G1 X161.681 Y114.019 E.55427
G1 X162.377 Y115.7 E.05704
G1 X162.377 Y119.06 E.10535
G1 X161.681 Y120.741 E.05704
G1 X159.241 Y123.181 E.10819
G1 X157.56 Y123.877 E.05704
G1 X118 Y123.877 E1.24038
G1 X116.634 Y123.7 E.04317
G1 X115.455 Y123.236 E.03975
G1 X114.39 Y122.484 E.04086
M73 Q2 S11
G1 X101.627 Y109.729 E.56578
G1 X101.155 Y109.166 E.02301
M73 P2 R11
G1 X100.695 Y108.412 E.0277
G1 X100.408 Y107.724 E.02338
G1 X100.187 Y106.819 E.0292
G1 X100.123 Y106 E.02576
G1 X100.163 Y103.348 E.08315
G1 X100.406 Y102.281 E.03431
G1 X100.764 Y101.455 E.02824
G1 X101.481 Y100.439 E.03898
M204 S1000
; printing object base support.stl id:0 copy 0
;WIPE_START
G1 F8640
G1 X102.456 Y99.568 E-.30186
G1 X103.433 Y99.037 E-.25666
G1 X104.681 Y98.687 E-.29934
G1 X105.079 Y98.656 E-.09214
;WIPE_END
G1 E-.05 F2100
G1 Z.4 F720
G1 X131.729 Y106.8 F10800
G1 Z.2 F720
G1 E1 F2100
M204 S800
;TYPE:Perimeter
;WIDTH:0.419999
G1 F1200
G1 X131.756 Y106.939 E.00446
G1 X131.939 Y107.174 E.00933
G1 X132.278 Y107.287 E.01121
G1 X145.021 Y107.284 E.39955
G1 X145.788 Y107.234 E.02408
G1 X145.571 Y107.406 E.00866
G1 X144.739 Y108.213 E.03635
G1 X105.359 Y108.206 E1.23475
G1 X104.761 Y108.079 E.01915
M73 P2 R10
G1 X104.217 Y107.801 E.01915
G1 X103.902 Y107.521 E.01321
G1 X103.533 Y107.009 E.0198
G1 X103.354 Y106.48 E.01749
G1 X103.287 Y105.978 E.01591
G1 X103.293 Y104.05 E.06044
G1 X103.374 Y103.394 E.02072
G1 X103.611 Y102.851 E.01858
G1 X103.991 Y102.384 E.01888
G1 X104.433 Y102.078 E.01688
G1 X104.903 Y101.871 E.0161
G1 X105.523 Y101.787 E.01961
G1 X131.4 Y101.787 E.81134
;WIDTH:0.46146
G1 X131.693 Y101.808 E.01022
;WIDTH:0.502921
M73 Q2 S10
G1 X131.986 Y101.829 E.01123
;WIDTH:0.544381
G1 X132.279 Y101.849 E.01224
;WIDTH:0.544542
G1 X144.5 Y101.849 E.50977
;WIDTH:0.546886
G1 X144.754 Y101.851 E.01062
M73 P3 R10
M73 Q3 S10
G1 X145.369 Y102.377 E.03393
G1 X144.5 Y102.351 E.03641
;WIDTH:0.544542
G1 X132.279 Y102.351 E.50977
;WIDTH:0.551039
G1 X132.169 Y102.357 E.00462
G1 X132.055 Y102.451 E.00626
;WIDTH:0.507359
G1 X131.941 Y102.545 E.00572
;WIDTH:0.463679
G1 X131.826 Y102.639 E.00518
;WIDTH:0.419999
G1 X131.713 Y102.979 E.01122
G1 X131.717 Y106.741 E.11796
M204 S1000
G1 X132.09 Y106.721 F10800
M204 S800
;TYPE:External perimeter
G1 F1200
G1 X132.165 Y106.872 E.00529
G1 X132.279 Y106.91 E.00374
G1 X144.551 Y106.907 E.38479
G1 X145.525 Y106.887 E.03056
G1 X146.027 Y106.823 E.01587
G1 X146.524 Y106.71 E.01597
G1 X147.029 Y106.718 E.01585
G1 X146.672 Y107.091 E.01622
G1 X146.245 Y107.357 E.01576
G1 X145.836 Y107.674 E.01621
G1 X144.892 Y108.59 E.04125
G1 X105.326 Y108.583 E1.24056
G1 X104.635 Y108.434 E.02217
G1 X104.174 Y108.209 E.01607
G1 X103.733 Y107.892 E.01704
G1 X103.387 Y107.474 E.01703
G1 X103.131 Y107.029 E.01609
G1 X102.988 Y106.57 E.01509
G1 X102.91 Y105.99 E.01835
G1 X102.916 Y104.088 E.05963
G1 X102.954 Y103.607 E.01512
G1 X103.073 Y103.115 E.01588
G1 X103.288 Y102.655 E.01593
G1 X103.626 Y102.221 E.01724
G1 X104.004 Y101.887 E.01583
G1 X104.471 Y101.624 E.01679
G1 X104.982 Y101.469 E.01674
G1 X105.511 Y101.41 E.01667
G1 X144.917 Y101.41 E1.23555
G1 X145.855 Y102.211 E.03868
M73 Q4 S10
G1 X146.609 Y102.679 E.02782
G1 X146.946 Y102.99 E.01439
G1 X146.536 Y102.99 E.01288
G1 X145.508 Y102.823 E.03265
G1 X144.5 Y102.79 E.03161
G1 X132.279 Y102.79 E.38321
M73 P4 R10
G1 X132.128 Y102.865 E.00529
G1 X132.09 Y102.979 E.00374
G1 X132.09 Y106.661 E.11548
M204 S1000
G1 X131.976 Y106.846 F10800
;WIPE_START
G1 F8640
G1 X132.165 Y106.872 E-.05171
G1 X132.279 Y106.91 E-.02752
G1 X136.05 Y106.909 E-.87077
;WIPE_END
G1 E-.05 F2100
G1 Z.4 F720
G1 X144.692 Y107.389 F10800
G1 Z.2 F720
G1 E1 F2100
M204 S800
;TYPE:Solid infill
;WIDTH:0.419999
G1 F1200
G1 X144.933 Y107.63 E.01069
G1 X144.663 Y107.893 E.01182
G1 X144.329 Y107.559 E.01479
G1 X143.796 Y107.56 E.01671
G1 X144.166 Y107.93 E.01641
G1 X143.633 Y107.93 E.01672
G1 X143.264 Y107.56 E.01639
G1 X142.731 Y107.561 E.01671
G1 X143.1 Y107.93 E.01636
G1 X142.566 Y107.93 E.01672
G1 X142.198 Y107.561 E.01634
G1 X141.665 Y107.562 E.01671
G1 X142.033 Y107.93 E.01631
G1 X141.5 Y107.93 E.01672
G1 X141.132 Y107.562 E.01629
G1 X140.6 Y107.563 E.01671
G1 X140.966 Y107.929 E.01627
G1 X140.433 Y107.929 E.01672
G1 X140.067 Y107.563 E.01624
G1 X139.534 Y107.564 E.01671
G1 X139.9 Y107.929 E.01622
G1 X139.366 Y107.929 E.01672
G1 X139.001 Y107.564 E.01619
G1 X138.468 Y107.564 E.01671
G1 X138.833 Y107.929 E.01617
G1 X138.3 Y107.929 E.01672
G1 X137.935 Y107.565 E.01614
G1 X137.403 Y107.565 E.01671
G1 X137.766 Y107.929 E.01612
G1 X137.233 Y107.929 E.01672
G1 X136.87 Y107.566 E.01609
G1 X136.337 Y107.566 E.01671
G1 X136.699 Y107.929 E.01607
G1 X136.166 Y107.929 E.01672
G1 X135.804 Y107.567 E.01604
G1 X135.271 Y107.567 E.01671
G1 X135.633 Y107.929 E.01602
G1 X135.099 Y107.928 E.01672
G1 X134.739 Y107.568 E.016
G1 X134.206 Y107.568 E.01671
G1 X134.566 Y107.928 E.01597
G1 X134.033 Y107.928 E.01672
G1 X133.673 Y107.569 E.01595
G1 X133.14 Y107.569 E.01671
G1 X133.499 Y107.928 E.01592
G1 X132.966 Y107.928 E.01672
G1 X132.438 Y107.4 E.02341
M204 S1000
;WIPE_START
G1 F8640
G1 X132.966 Y107.928 E-.17243
G1 X133.499 Y107.928 E-.12315
G1 X133.14 Y107.569 E-.11725
G1 X133.673 Y107.569 E-.12303
G1 X134.033 Y107.928 E-.11743
G1 X134.566 Y107.928 E-.12315
G1 X134.206 Y107.568 E-.11761
G1 X134.448 Y107.568 E-.05593
;WIPE_END
G1 E-.05 F2100
G1 Z.4 F720
G1 X131.809 Y102.505 F10800
G1 Z.2 F720
G1 E1 F2100
M204 S800
G1 F1200
G1 X131.374 Y102.07 E.01928
G1 X130.841 Y102.07 E.01672
G1 X131.506 Y102.735 E.02951
G1 X131.43 Y102.963 E.00753
G1 X131.43 Y103.193 E.00719
G1 X130.307 Y102.07 E.04979
G1 X129.774 Y102.07 E.01672
G1 X131.43 Y103.726 E.07343
G1 X131.43 Y104.259 E.01672
G1 X129.241 Y102.07 E.09708
G1 X128.708 Y102.07 E.01672
G1 X131.43 Y104.792 E.12073
G1 X131.43 Y105.326 E.01672
G1 X128.174 Y102.07 E.14437
G1 X127.641 Y102.07 E.01672
G1 X131.43 Y105.859 E.16802
G1 X131.43 Y106.392 E.01672
G1 X127.108 Y102.07 E.19166
G1 X126.574 Y102.07 E.01672
G1 X132.433 Y107.928 E.25976
G1 X131.899 Y107.928 E.01672
G1 X126.041 Y102.07 E.25976
G1 X125.508 Y102.07 E.01672
G1 X131.366 Y107.928 E.25975
G1 X130.832 Y107.928 E.01672
M73 Q5 S10
G1 X124.975 Y102.07 E.25975
G1 X124.441 Y102.07 E.01672
M73 P5 R10
G1 X130.299 Y107.928 E.25974
G1 X129.766 Y107.928 E.01672
G1 X123.908 Y102.07 E.25974
G1 X123.375 Y102.07 E.01672
G1 X129.232 Y107.927 E.25974
G1 X128.699 Y107.927 E.01672
G1 X122.842 Y102.07 E.25973
G1 X122.308 Y102.07 E.01672
G1 X128.166 Y107.927 E.25973
G1 X127.632 Y107.927 E.01672
G1 X121.775 Y102.07 E.25972
G1 X121.242 Y102.07 E.01672
G1 X127.099 Y107.927 E.25972
G1 X126.566 Y107.927 E.01672
G1 X120.708 Y102.07 E.25972
G1 X120.175 Y102.07 E.01672
G1 X126.032 Y107.927 E.25971
G1 X125.499 Y107.927 E.01672
G1 X119.642 Y102.07 E.25971
G1 X119.109 Y102.07 E.01672
G1 X124.966 Y107.927 E.2597
G1 X124.432 Y107.927 E.01672
G1 X118.575 Y102.07 E.2597
G1 X118.042 Y102.07 E.01672
G1 X123.899 Y107.927 E.2597
G1 X123.365 Y107.927 E.01672
G1 X117.509 Y102.07 E.25969
G1 X116.976 Y102.07 E.01672
M73 Q6 S10
G1 X122.832 Y107.926 E.25969
G1 X122.299 Y107.926 E.01672
M73 P6 R10
G1 X116.442 Y102.07 E.25968
G1 X115.909 Y102.07 E.01672
G1 X121.765 Y107.926 E.25968
G1 X121.232 Y107.926 E.01672
G1 X115.376 Y102.07 E.25968
G1 X114.842 Y102.07 E.01672
G1 X120.699 Y107.926 E.25967
G1 X120.165 Y107.926 E.01672
G1 X114.309 Y102.07 E.25967
G1 X113.776 Y102.07 E.01672
G1 X119.632 Y107.926 E.25966
G1 X119.099 Y107.926 E.01672
G1 X113.243 Y102.07 E.25966
G1 X112.709 Y102.07 E.01672
G1 X118.565 Y107.926 E.25966
G1 X118.032 Y107.926 E.01672
G1 X112.176 Y102.07 E.25965
G1 X111.643 Y102.07 E.01672
G1 X117.499 Y107.926 E.25965
G1 X116.965 Y107.925 E.01672
G1 X111.11 Y102.07 E.25964
G1 X110.576 Y102.07 E.01672
G1 X116.432 Y107.925 E.25964
G1 X115.898 Y107.925 E.01672
G1 X110.043 Y102.07 E.25964
G1 X109.51 Y102.07 E.01672
G1 X115.365 Y107.925 E.25963
G1 X114.832 Y107.925 E.01672
M73 Q7 S10
G1 X108.977 Y102.07 E.25963
G1 X108.443 Y102.07 E.01672
M73 P7 R10
G1 X114.298 Y107.925 E.25962
G1 X113.765 Y107.925 E.01672
G1 X107.91 Y102.07 E.25962
G1 X107.377 Y102.07 E.01672
G1 X113.232 Y107.925 E.25962
G1 X112.698 Y107.925 E.01672
G1 X106.843 Y102.07 E.25961
G1 X106.31 Y102.07 E.01672
G1 X112.165 Y107.925 E.25961
G1 X111.632 Y107.925 E.01672
G1 X105.777 Y102.07 E.25961
G1 X105.262 Y102.088 E.01615
G1 X111.098 Y107.924 E.25878
G1 X110.565 Y107.924 E.01672
G1 X104.835 Y102.195 E.25405
G1 X104.482 Y102.375 E.01243
G1 X110.031 Y107.924 E.24607
G1 X109.498 Y107.924 E.01672
G1 X104.175 Y102.601 E.23604
G1 X103.93 Y102.889 E.01186
G1 X108.965 Y107.924 E.22326
G1 X108.431 Y107.924 E.01672
G1 X103.734 Y103.227 E.20828
G1 X103.648 Y103.466 E.00797
G1 X103.618 Y103.644 E.00565
G1 X107.898 Y107.924 E.18979
G1 X107.365 Y107.924 E.01672
G1 X103.576 Y104.135 E.16802
G1 X103.574 Y104.666 E.01667
G1 X106.831 Y107.924 E.14444
G1 X106.298 Y107.924 E.01672
G1 X103.572 Y105.198 E.12086
G1 X103.571 Y105.73 E.01667
M73 Q8 S10
G1 X105.765 Y107.924 E.09728
G1 X105.383 Y107.923 E.01197
M73 P8 R10
G1 X105.2 Y107.892 E.00583
G1 X103.409 Y106.101 E.0794
M204 S1000
; stop printing object base support.stl id:0 copy 0
; printing object base support.stl id:0 copy 1
;WIPE_START
G1 F8640
G1 X105.2 Y107.892 E-.58476
G1 X105.383 Y107.923 E-.0429
G1 X105.765 Y107.924 E-.08817
G1 X105.047 Y107.206 E-.23418
;WIPE_END
G1 E-.05 F2100
G1 Z.4 F720
G1 X144.229 Y119.3 F10800
G1 Z.2 F720
G1 E1 F2100
M204 S800
;TYPE:Perimeter
;WIDTH:0.419999
G1 F1200
G1 X144.256 Y119.439 E.00446
G1 X144.439 Y119.674 E.00933
G1 X144.778 Y119.787 E.01121
G1 X157.521 Y119.784 E.39955
G1 X158.288 Y119.734 E.02408
G1 X158.071 Y119.906 E.00866
G1 X157.239 Y120.713 E.03635
G1 X117.859 Y120.706 E1.23475
G1 X117.261 Y120.579 E.01915
G1 X116.717 Y120.301 E.01915
G1 X116.402 Y120.021 E.01321
G1 X116.033 Y119.509 E.0198
G1 X115.854 Y118.98 E.01749
G1 X115.787 Y118.478 E.01591
G1 X115.793 Y116.55 E.06044
G1 X115.874 Y115.894 E.02072
G1 X116.111 Y115.351 E.01858
G1 X116.491 Y114.884 E.01888
G1 X116.933 Y114.578 E.01688
G1 X117.403 Y114.371 E.0161
G1 X118.023 Y114.287 E.01961
G1 X143.9 Y114.287 E.81134
;WIDTH:0.46146
G1 X144.193 Y114.308 E.01022
;WIDTH:0.502921
G1 X144.486 Y114.329 E.01123
;WIDTH:0.544381
G1 X144.779 Y114.349 E.01224
;WIDTH:0.544542
G1 X157 Y114.349 E.50977
;WIDTH:0.546886
G1 X157.254 Y114.351 E.01062
G1 X157.869 Y114.877 E.03393
G1 X157 Y114.851 E.03641
;WIDTH:0.544542
G1 X144.779 Y114.851 E.50977
;WIDTH:0.551039
G1 X144.669 Y114.857 E.00462
M73 P9 R10
M73 Q9 S10
G1 X144.555 Y114.951 E.00626
;WIDTH:0.507359
G1 X144.441 Y115.045 E.00572
;WIDTH:0.463679
G1 X144.326 Y115.139 E.00518
;WIDTH:0.419999
G1 X144.213 Y115.479 E.01122
G1 X144.217 Y119.241 E.11796
M204 S1000
G1 X144.59 Y119.221 F10800
M204 S800
;TYPE:External perimeter
G1 F1200
G1 X144.665 Y119.372 E.00529
G1 X144.779 Y119.41 E.00374
G1 X157.051 Y119.407 E.38479
G1 X158.025 Y119.387 E.03056
G1 X158.527 Y119.323 E.01587
G1 X159.024 Y119.21 E.01597
G1 X159.529 Y119.218 E.01585
G1 X159.172 Y119.591 E.01622
G1 X158.745 Y119.857 E.01576
G1 X158.336 Y120.174 E.01621
G1 X157.392 Y121.09 E.04125
G1 X117.826 Y121.083 E1.24056
G1 X117.135 Y120.934 E.02217
G1 X116.674 Y120.709 E.01607
G1 X116.233 Y120.392 E.01704
G1 X115.887 Y119.974 E.01703
G1 X115.631 Y119.529 E.01609
G1 X115.488 Y119.07 E.01509
G1 X115.41 Y118.49 E.01835
G1 X115.416 Y116.588 E.05963
G1 X115.454 Y116.107 E.01512
G1 X115.573 Y115.615 E.01588
G1 X115.788 Y115.155 E.01593
G1 X116.126 Y114.721 E.01724
G1 X116.504 Y114.387 E.01583
G1 X116.971 Y114.124 E.01679
G1 X117.482 Y113.969 E.01674
G1 X118.011 Y113.91 E.01667
G1 X157.417 Y113.91 E1.23555
G1 X158.355 Y114.711 E.03868
G1 X159.109 Y115.179 E.02782
G1 X159.446 Y115.49 E.01439
G1 X159.036 Y115.49 E.01288
G1 X158.008 Y115.323 E.03265
G1 X157 Y115.29 E.03161
G1 X144.779 Y115.29 E.38321
G1 X144.628 Y115.365 E.00529
M73 Q10 S10
G1 X144.59 Y115.479 E.00374
G1 X144.59 Y119.161 E.11548
M204 S1000
G1 X144.476 Y119.346 F10800
;WIPE_START
M73 P10 R10
G1 F8640
G1 X144.665 Y119.372 E-.05171
G1 X144.779 Y119.41 E-.02752
G1 X148.55 Y119.409 E-.87077
;WIPE_END
G1 E-.05 F2100
G1 Z.4 F720
G1 X157.192 Y119.889 F10800
G1 Z.2 F720
G1 E1 F2100
M204 S800
;TYPE:Solid infill
;WIDTH:0.419999
G1 F1200
G1 X157.433 Y120.13 E.01069
G1 X157.163 Y120.393 E.01182
G1 X156.829 Y120.059 E.01479
G1 X156.296 Y120.06 E.01671
G1 X156.666 Y120.43 E.01641
G1 X156.133 Y120.43 E.01672
G1 X155.764 Y120.06 E.01639
G1 X155.231 Y120.061 E.01671
G1 X155.6 Y120.43 E.01636
G1 X155.066 Y120.43 E.01672
G1 X154.698 Y120.061 E.01634
G1 X154.165 Y120.062 E.01671
G1 X154.533 Y120.43 E.01631
G1 X154 Y120.43 E.01672
G1 X153.632 Y120.062 E.01629
G1 X153.1 Y120.063 E.01671
G1 X153.466 Y120.429 E.01627
G1 X152.933 Y120.429 E.01672
G1 X152.567 Y120.063 E.01624
G1 X152.034 Y120.064 E.01671
G1 X152.4 Y120.429 E.01622
G1 X151.866 Y120.429 E.01672
G1 X151.501 Y120.064 E.01619
G1 X150.968 Y120.064 E.01671
G1 X151.333 Y120.429 E.01617
G1 X150.8 Y120.429 E.01672
G1 X150.435 Y120.065 E.01614
G1 X149.903 Y120.065 E.01671
G1 X150.266 Y120.429 E.01612
G1 X149.733 Y120.429 E.01672
G1 X149.37 Y120.066 E.01609
G1 X148.837 Y120.066 E.01671
G1 X149.199 Y120.429 E.01607
G1 X148.666 Y120.429 E.01672
G1 X148.304 Y120.067 E.01604
G1 X147.771 Y120.067 E.01671
G1 X148.133 Y120.429 E.01602
G1 X147.599 Y120.428 E.01672
G1 X147.239 Y120.068 E.016
G1 X146.706 Y120.068 E.01671
G1 X147.066 Y120.428 E.01597
G1 X146.533 Y120.428 E.01672
G1 X146.173 Y120.069 E.01595
G1 X145.64 Y120.069 E.01671
G1 X145.999 Y120.428 E.01592
G1 X145.466 Y120.428 E.01672
G1 X144.938 Y119.9 E.02341
M204 S1000
;WIPE_START
G1 F8640
G1 X145.466 Y120.428 E-.17243
G1 X145.999 Y120.428 E-.12315
G1 X145.64 Y120.069 E-.11725
G1 X146.173 Y120.069 E-.12303
G1 X146.533 Y120.428 E-.11743
G1 X147.066 Y120.428 E-.12315
G1 X146.706 Y120.068 E-.11761
G1 X146.948 Y120.068 E-.05593
;WIPE_END
G1 E-.05 F2100
G1 Z.4 F720
G1 X144.309 Y115.005 F10800
G1 Z.2 F720
G1 E1 F2100
M204 S800
G1 F1200
G1 X143.874 Y114.57 E.01928
G1 X143.341 Y114.57 E.01672
G1 X144.006 Y115.235 E.02951
G1 X143.93 Y115.463 E.00753
G1 X143.93 Y115.693 E.00719
G1 X142.807 Y114.57 E.04979
G1 X142.274 Y114.57 E.01672
G1 X143.93 Y116.226 E.07343
