; generated by PrusaSlicer 2.5.0+win64 on 2022-11-19 at 15:41:37 UTC


;
;
; 

; external perimeters extrusion width = 0.45mm
; perimeters extrusion width = 0.45mm
; infill extrusion width = 0.45mm
; solid infill extrusion width = 0.45mm
; top infill extrusion width = 0.40mm
; first layer extrusion width = 0.42mm

M73 P0 R7
M73 Q0 S7
M201 X1000 Y1000 Z200 E5000 ; sets maximum accelerations, mm/sec^2
M203 X200 Y200 Z12 E120 ; sets maximum feedrates, mm / sec
M204 P1250 R1250 T1250 ; sets acceleration (P, T) and retract acceleration (R), mm/sec^2
M205 X8.00 Y8.00 Z0.40 E4.50 ; sets the jerk limits, mm/sec
M205 S0 T0 ; sets the minimum extruding and travel feed rate, mm/sec
M107
;TYPE:Custom
M862.3 P "MK3" ; printer model check
M862.1 P0.4 ; nozzle diameter check
M115 U3.11.0 ; tell printer latest fw version
G90 ; use absolute coordinates
M83 ; extruder relative mode
M104 S215 ; set extruder temp
M140 S60 ; set bed temp
M190 S60 ; wait for bed temp
M109 S215 ; wait for extruder temp
G28 W ; home all without mesh bed level
G80 ; mesh bed leveling

G1 Z0.2 F720
G1 Y-3 F1000 ; go outside print area
G92 E0
G1 X60 E9 F1000 ; intro line
G1 X100 E12.5 F1000 ; intro line

G92 E0
M221 S95

; Don't change E values below. Excessive value can damage the printer.
M907 E430 ; set extruder motor current
G21 ; set units to millimeters
G90 ; use absolute coordinates
M83 ; use relative distances for extrusion
M900 K0.05 ; Filament gcode LA 1.5
M900 K30 ; Filament gcode LA 1.0
M107
;LAYER_CHANGE
;Z:0.2
;HEIGHT:0.2
;BEFORE_LAYER_CHANGE
G92 E0.0
;0.2


G1 E-.8 F2100
M73 P1 R7
M73 Q1 S7
G1 Z.4 F720
;AFTER_LAYER_CHANGE
;0.2
G1 X111.224 Y92.168 F10800
G1 Z.2 F720
G1 E.8 F2100
M204 S800
;TYPE:Skirt/Brim
;WIDTH:0.42
G1 F1200
G1 X112.291 Y91.155 E.04612
G1 X113.586 Y90.832 E.04186
G1 X136.414 Y90.832 E.71577
G1 X137.832 Y91.224 E.04612
M73 Q2 S7
G1 X138.845 Y92.291 E.04612
G1 X139.165 Y93.726 E.04612
G1 X138.362 Y95.533 E.062
G1 X115.533 Y118.362 E1.01225
G1 X114.253 Y119.086 E.04612
M73 P2 R7
G1 X112.783 Y119.049 E.04612
G1 X111.542 Y118.26 E.04612
G1 X110.832 Y116.414 E.062
G1 X110.832 Y93.586 E.71577
G1 X111.208 Y92.226 E.04424
M204 S1000
G1 X111.582 Y92.338 F10800
M204 S800
G1 F1200
G1 X111.6 Y92.279 E.00195
G1 X112.646 Y91.402 E.04278
G1 X113.586 Y91.209 E.03008
G1 X136.414 Y91.209 E.71577
G1 X137.721 Y91.6 E.04278
M73 P3 R7
M73 Q3 S7
G1 X138.598 Y92.646 E.04278
G1 X138.755 Y94.001 E.04278
G1 X138.095 Y95.267 E.04474
G1 X115.267 Y118.095 E1.01225
G1 X114.066 Y118.742 E.04278
G1 X112.706 Y118.623 E.04278
G1 X111.637 Y117.775 E.04278
G1 X111.209 Y116.414 E.04474
G1 X111.209 Y93.586 E.71577
G1 X111.565 Y92.396 E.03895
M204 S1000
; printing object side2.stl id:0 copy 0
;WIPE_START
G1 F8640
G1 X111.6 Y92.279 E-.0282
G1 X112.646 Y91.402 E-.31505
G1 X113.586 Y91.209 E-.22155
G1 X114.431 Y91.209 E-.1952
;WIPE_END
G1 E-.04 F2100
G1 Z.6 F720
G1 X134.603 Y94.327 F10800
G1 Z.2 F720
G1 E.8 F2100
M204 S800
;TYPE:Perimeter
;WIDTH:0.419999
G1 F1200
M73 Q4 S7
G1 X134.165 Y94.73 E.01865
G1 X133.456 Y95.431 E.03125
G1 X115.142 Y113.745 E.81208
G1 X114.323 Y114.635 E.03791
M73 P4 R6
M73 Q4 S6
G1 X114.346 Y114.439 E.00618
G1 X114.373 Y113.437 E.03143
G1 X114.373 Y94.373 E.59774
G1 X133.452 Y94.372 E.59822
G1 X134.543 Y94.331 E.03422
M204 S1000
;WIPE_START
G1 F8640
G1 X134.165 Y94.73 E-.12702
G1 X133.456 Y95.431 E-.23015
G1 X132.222 Y96.665 E-.40284
;WIPE_END
G1 E-.04 F2100
G1 Z.6 F720
G1 X135.903 Y93.797 F10800
G1 Z.2 F720
G1 E.8 F2100
M204 S800
;TYPE:External perimeter
G1 F1200
G1 X135.565 Y94.118 E.0146
G1 X134.81 Y94.658 E.02912
G1 X134.43 Y94.998 E.016
G1 X133.721 Y95.699 E.03125
G1 X115.409 Y114.012 E.81201
G1 X114.701 Y114.761 E.03231
M73 P5 R6
M73 Q5 S6
G1 X114.137 Y115.561 E.0307
G1 X113.798 Y115.902 E.01506
G1 X113.796 Y115.444 E.01436
G1 X113.899 Y114.954 E.01568
G1 X113.967 Y114.454 E.01584
G1 X113.996 Y113.44 E.0318
G1 X113.996 Y93.996 E.60966
G1 X133.442 Y93.995 E.60972
G1 X134.552 Y93.954 E.03483
G1 X135.425 Y93.8 E.02781
G1 X135.843 Y93.798 E.0131
M204 S1000
G1 X135.561 Y94.004 F10800
;WIPE_START
G1 F8640
G1 X135.565 Y94.118 E-.09786
G1 X134.81 Y94.658 E-.21443
G1 X134.43 Y94.998 E-.11781
G1 X133.721 Y95.699 E-.23015
G1 X133.416 Y96.004 E-.09975
;WIPE_END
G1 E-.04 F2100
G1 Z.6 F720
G1 X133.553 Y94.483 F10800
G1 Z.2 F720
G1 E.8 F2100
M204 S800
;TYPE:Solid infill
;WIDTH:0.423034
G1 F1200
G1 X133.783 Y94.713 E.0103
G1 X133.514 Y94.982 E.01201
G1 X133.188 Y94.655 E.01459
G1 X132.651 Y94.655 E.01699
G1 X133.246 Y95.25 E.0266
G1 X132.977 Y95.519 E.01201
G1 X132.113 Y94.655 E.03861
G1 X131.575 Y94.655 E.01699
G1 X132.708 Y95.788 E.05062
G1 X132.439 Y96.057 E.01201
G1 X131.038 Y94.655 E.06263
G1 X130.5 Y94.655 E.01699
G1 X132.17 Y96.325 E.07464
G1 X131.901 Y96.594 E.01201
G1 X129.963 Y94.655 E.08665
M73 Q6 S6
G1 X129.425 Y94.655 E.01699
G1 X131.632 Y96.863 E.09866
G1 X131.364 Y97.131 E.01201
M73 P6 R6
G1 X128.888 Y94.655 E.11067
G1 X128.35 Y94.655 E.01699
G1 X131.095 Y97.4 E.12269
G1 X130.826 Y97.669 E.01201
G1 X127.813 Y94.655 E.1347
G1 X127.275 Y94.655 E.01699
G1 X130.557 Y97.938 E.14671
G1 X130.288 Y98.206 E.01201
G1 X126.737 Y94.656 E.15872
G1 X126.2 Y94.656 E.01699
G1 X130.019 Y98.475 E.17073
G1 X129.751 Y98.744 E.01201
G1 X125.662 Y94.656 E.18274
G1 X125.125 Y94.656 E.01699
G1 X129.482 Y99.013 E.19475
G1 X129.213 Y99.281 E.01201
G1 X124.587 Y94.656 E.20676
G1 X124.05 Y94.656 E.01699
G1 X128.944 Y99.55 E.21877
G1 X128.675 Y99.819 E.01201
G1 X123.512 Y94.656 E.23078
G1 X122.975 Y94.656 E.01699
G1 X128.406 Y100.087 E.24279
G1 X128.138 Y100.356 E.01201
G1 X122.437 Y94.656 E.25481
G1 X121.899 Y94.656 E.01699
M73 Q7 S6
G1 X127.869 Y100.625 E.26682
G1 X127.6 Y100.894 E.01201
M73 P7 R6
G1 X121.362 Y94.656 E.27883
G1 X120.824 Y94.656 E.01699
G1 X127.331 Y101.162 E.29084
G1 X127.062 Y101.431 E.01201
G1 X120.287 Y94.656 E.30285
G1 X119.749 Y94.656 E.01699
G1 X126.793 Y101.7 E.31486
G1 X126.524 Y101.968 E.01201
G1 X119.212 Y94.656 E.32687
G1 X118.674 Y94.656 E.01699
G1 X126.256 Y102.237 E.33888
G1 X125.987 Y102.506 E.01201
G1 X118.137 Y94.656 E.35089
G1 X117.599 Y94.656 E.01699
G1 X125.718 Y102.775 E.3629
M73 Q8 S6
G1 X125.449 Y103.043 E.01201
M73 P8 R6
G1 X117.061 Y94.656 E.37491
G1 X116.524 Y94.656 E.01699
G1 X125.18 Y103.312 E.38693
G1 X124.911 Y103.581 E.01201
G1 X115.986 Y94.656 E.39894
G1 X115.449 Y94.656 E.01699
G1 X124.643 Y103.849 E.41095
G1 X124.374 Y104.118 E.01201
G1 X114.911 Y94.656 E.42296
G1 X114.656 Y94.656 E.00808
G1 X114.656 Y94.938 E.00891
G1 X124.105 Y104.387 E.42236
G1 X123.836 Y104.656 E.01201
M73 Q9 S6
G1 X114.656 Y95.475 E.41035
G1 X114.656 Y96.013 E.01699
M73 P9 R6
G1 X123.567 Y104.924 E.39833
G1 X123.298 Y105.193 E.01201
G1 X114.656 Y96.55 E.38631
G1 X114.656 Y97.088 E.01699
G1 X123.029 Y105.462 E.3743
G1 X122.761 Y105.73 E.01201
G1 X114.656 Y97.625 E.36228
G1 X114.656 Y98.163 E.01699
G1 X122.492 Y105.999 E.35026
G1 X122.223 Y106.268 E.01201
G1 X114.656 Y98.701 E.33825
G1 X114.656 Y99.238 E.01699
M73 Q10 S6
G1 X121.954 Y106.537 E.32623
G1 X121.685 Y106.805 E.01201
M73 P10 R6
G1 X114.656 Y99.776 E.31421
G1 X114.656 Y100.313 E.01699
G1 X121.416 Y107.074 E.3022
G1 X121.148 Y107.343 E.01201
G1 X114.656 Y100.851 E.29018
G1 X114.656 Y101.388 E.01699
G1 X120.879 Y107.611 E.27816
G1 X120.61 Y107.88 E.01201
G1 X114.656 Y101.926 E.26615
G1 X114.656 Y102.463 E.01699
G1 X120.341 Y108.149 E.25413
G1 X120.072 Y108.418 E.01201
G1 X114.656 Y103.001 E.24211
G1 X114.656 Y103.539 E.01699
G1 X119.803 Y108.686 E.2301
G1 X119.534 Y108.955 E.01201
M73 Q11 S6
G1 X114.656 Y104.076 E.21808
G1 X114.656 Y104.614 E.01699
M73 P11 R6
G1 X119.266 Y109.224 E.20606
G1 X118.997 Y109.492 E.01201
G1 X114.656 Y105.151 E.19405
G1 X114.656 Y105.689 E.01699
G1 X118.728 Y109.761 E.18203
G1 X118.459 Y110.03 E.01201
G1 X114.656 Y106.226 E.17001
G1 X114.656 Y106.764 E.01699
G1 X118.19 Y110.299 E.158
G1 X117.921 Y110.567 E.01201
G1 X114.655 Y107.301 E.14598
G1 X114.655 Y107.839 E.01699
G1 X117.653 Y110.836 E.13396
G1 X117.384 Y111.105 E.01201
G1 X114.655 Y108.377 E.12195
G1 X114.655 Y108.914 E.01699
G1 X117.115 Y111.373 E.10993
G1 X116.846 Y111.642 E.01201
G1 X114.655 Y109.452 E.09791
G1 X114.655 Y109.989 E.01699
G1 X116.577 Y111.911 E.0859
G1 X116.308 Y112.18 E.01201
G1 X114.655 Y110.527 E.07388
G1 X114.655 Y111.064 E.01699
G1 X116.039 Y112.448 E.06186
G1 X115.771 Y112.717 E.01201
G1 X114.655 Y111.602 E.04985
G1 X114.655 Y112.139 E.01699
G1 X115.502 Y112.986 E.03783
G1 X115.233 Y113.255 E.01201
G1 X114.655 Y112.677 E.02581
G1 X114.655 Y113.215 E.01699
G1 X114.964 Y113.523 E.0138
G1 X114.702 Y113.798 E.01202
G1 X114.482 Y113.579 E.00983
M204 S1000
; stop printing object side2.stl id:0 copy 0
M106 S84.15
;LAYER_CHANGE
;Z:0.4
;HEIGHT:0.2
;BEFORE_LAYER_CHANGE
G92 E0.0
;0.4


;WIPE_START
G1 F8640
G1 X114.702 Y113.798 E-.07179
G1 X114.964 Y113.523 E-.08779
G1 X114.655 Y113.215 E-.10079
G1 X114.655 Y112.677 E-.12412
G1 X115.233 Y113.255 E-.18858
G1 X115.502 Y112.986 E-.08777
G1 X115.198 Y112.682 E-.09916
;WIPE_END
G1 E-.04 F2100
G1 Z.6 F720
;AFTER_LAYER_CHANGE
;0.4
G1 X118.205 Y115.689 F10800
M73 Q12 S6
G1 Z.4 F720
G1 E.8 F2100
;TYPE:Skirt/Brim
;WIDTH:0.42
G1 F3000
G1 X115.533 Y118.362 E.11849
G1 X114.253 Y119.086 E.04612
M73 P12 R6
G1 X112.783 Y119.049 E.04612
G1 X111.542 Y118.26 E.04612
G1 X110.832 Y116.414 E.062
G1 X110.832 Y93.586 E.71577
G1 X111.224 Y92.168 E.04612
G1 X112.291 Y91.155 E.04612
G1 X113.586 Y90.832 E.04186
G1 X136.414 Y90.832 E.71577
G1 X137.832 Y91.224 E.04612
G1 X138.845 Y92.291 E.04612
G1 X139.165 Y93.726 E.04612
G1 X138.362 Y95.533 E.062
G1 X118.248 Y115.647 E.89188
G1 X117.981 Y115.38 F10800
G1 F3000
G1 X115.267 Y118.095 E.12037
G1 X114.066 Y118.742 E.04278
G1 X112.706 Y118.623 E.04278
G1 X111.637 Y117.775 E.04278
G1 X111.209 Y116.414 E.04474
G1 X111.209 Y93.586 E.71577
G1 X111.6 Y92.279 E.04278
G1 X112.646 Y91.402 E.04278
G1 X113.586 Y91.209 E.03008
G1 X136.414 Y91.209 E.71577
G1 X137.721 Y91.6 E.04278
G1 X138.598 Y92.646 E.04278
G1 X138.755 Y94.001 E.04278
G1 X138.095 Y95.267 E.04474
G1 X118.024 Y115.338 E.89
; printing object side2.stl id:0 copy 0
;WIPE_START
G1 F8640
M73 Q13 S6
G1 X115.696 Y117.665 E-.76
;WIPE_END
G1 E-.04 F2100
G1 Z.8 F720
G1 X134.888 Y94.218 F10800
M73 P13 R6
G1 Z.4 F720
G1 E.8 F2100
M204 S800
;TYPE:Perimeter
;WIDTH:0.449999
G1 F2700
G1 X114.218 Y114.888 E.98948
G1 X114.218 Y94.218 E.69967
G1 X134.828 Y94.218 E.69764
M204 S1000
;WIPE_START
G1 F8640
G1 X132.504 Y96.549 E-.76
;WIPE_END
G1 E-.04 F2100
G1 Z.8 F720
G1 X135.871 Y93.811 F10800
G1 Z.4 F720
G1 E.8 F2100
M204 S800
;TYPE:External perimeter
G1 F1500
G1 X113.811 Y115.871 E1.05601
G1 X113.811 Y93.811 E.74671
G1 X135.811 Y93.811 E.74468
M204 S1000
M73 P14 R6
M73 Q14 S6
G1 X135.767 Y93.424 F10800
;WIPE_START
G1 F8640
G1 X133.487 Y96.141 E-.76
;WIPE_END
G1 E-.04 F2100
G1 Z.8 F720
G1 X134.332 Y94.34 F10800
G1 Z.4 F720
G1 E.8 F2100
;TYPE:Solid infill
;WIDTH:0.453504
G1 F4800
G1 X114.523 Y114.149 E.95639
G1 X114.523 Y113.568 E.01982
G1 X133.568 Y94.523 E.91951
G1 X132.987 Y94.523 E.01982
G1 X114.523 Y112.987 E.89148
G1 X114.523 Y112.407 E.01982
G1 X132.407 Y94.523 E.86344
G1 X131.826 Y94.523 E.01982
G1 X114.523 Y111.826 E.83541
G1 X114.523 Y111.245 E.01982
G1 X131.245 Y94.523 E.80737
G1 X130.665 Y94.523 E.01982
M73 Q15 S6
G1 X114.523 Y110.665 E.77934
G1 X114.523 Y110.084 E.01982
M73 P15 R6
G1 X130.084 Y94.523 E.7513
G1 X129.503 Y94.523 E.01982
G1 X114.523 Y109.503 E.72327
G1 X114.523 Y108.923 E.01982
G1 X128.923 Y94.523 E.69523
G1 X128.342 Y94.523 E.01982
G1 X114.523 Y108.342 E.6672
G1 X114.523 Y107.761 E.01982
G1 X127.761 Y94.523 E.63916
G1 X127.181 Y94.523 E.01982
G1 X114.523 Y107.181 E.61113
G1 X114.523 Y106.6 E.01982
G1 X126.6 Y94.523 E.58309
G1 X126.019 Y94.523 E.01982
G1 X114.523 Y106.019 E.55506
G1 X114.523 Y105.439 E.01982
G1 X125.439 Y94.523 E.52702
G1 X124.858 Y94.523 E.01982
G1 X114.523 Y104.858 E.49899
G1 X114.523 Y104.278 E.01982
G1 X124.278 Y94.523 E.47095
G1 X123.697 Y94.523 E.01982
G1 X114.523 Y103.697 E.44292
G1 X114.523 Y103.116 E.01982
G1 X123.116 Y94.523 E.41488
G1 X122.536 Y94.523 E.01982
M73 Q16 S6
G1 X114.523 Y102.536 E.38685
G1 X114.523 Y101.955 E.01982
M73 P16 R6
G1 X121.955 Y94.523 E.35881
G1 X121.374 Y94.523 E.01982
G1 X114.523 Y101.374 E.33078
G1 X114.523 Y100.794 E.01982
G1 X120.794 Y94.523 E.30275
G1 X120.213 Y94.523 E.01982
G1 X114.523 Y100.213 E.27471
G1 X114.523 Y99.632 E.01982
G1 X119.632 Y94.523 E.24668
G1 X119.052 Y94.523 E.01982
G1 X114.523 Y99.052 E.21864
G1 X114.523 Y98.471 E.01982
G1 X118.471 Y94.523 E.19061
G1 X117.89 Y94.523 E.01982
G1 X114.523 Y97.89 E.16257
G1 X114.523 Y97.31 E.01982
G1 X117.31 Y94.523 E.13454
G1 X116.729 Y94.523 E.01982
G1 X114.523 Y96.729 E.1065
G1 X114.523 Y96.148 E.01982
G1 X116.148 Y94.523 E.07847
G1 X115.568 Y94.523 E.01982
G1 X114.523 Y95.568 E.05043
G1 X114.523 Y94.987 E.01982
G1 X115.17 Y94.34 E.03124
; stop printing object side2.stl id:0 copy 0
M106 S170.85
;LAYER_CHANGE
;Z:0.6
;HEIGHT:0.2
;BEFORE_LAYER_CHANGE
G92 E0.0
;0.6


;WIPE_START
G1 F8640
G1 X114.523 Y94.987 E-.2113
G1 X114.523 Y95.568 E-.13407
G1 X115.568 Y94.523 E-.34109
G1 X115.886 Y94.523 E-.07354
;WIPE_END
G1 E-.04 F2100
G1 Z.8 F720
;AFTER_LAYER_CHANGE
;0.6
G1 X115.886 Y90.832 F10800
G1 Z.6 F720
G1 E.8 F2100
;TYPE:Skirt/Brim
;WIDTH:0.42
G1 F3000
G1 X136.414 Y90.832 E.64364
G1 X137.832 Y91.224 E.04612
G1 X138.845 Y92.291 E.04612
G1 X139.165 Y93.726 E.04612
G1 X138.362 Y95.533 E.062
G1 X115.533 Y118.362 E1.01225
G1 X114.253 Y119.086 E.04612
G1 X112.783 Y119.049 E.04612
G1 X111.542 Y118.26 E.04612
G1 X110.832 Y116.414 E.062
G1 X110.832 Y93.586 E.71577
G1 X111.224 Y92.168 E.04612
M73 P17 R6
M73 Q17 S6
G1 X112.291 Y91.155 E.04612
G1 X113.586 Y90.832 E.04186
G1 X115.826 Y90.832 E.07025
G1 X115.826 Y91.209 F10800
G1 F3000
G1 X136.414 Y91.209 E.64552
G1 X137.721 Y91.6 E.04278
G1 X138.598 Y92.646 E.04278
G1 X138.755 Y94.001 E.04278
G1 X138.095 Y95.267 E.04474
G1 X115.267 Y118.095 E1.01225
G1 X114.066 Y118.742 E.04278
G1 X112.706 Y118.623 E.04278
G1 X111.637 Y117.775 E.04278
G1 X111.209 Y116.414 E.04474
G1 X111.209 Y93.586 E.71577
G1 X111.6 Y92.279 E.04278
G1 X112.646 Y91.402 E.04278
G1 X113.586 Y91.209 E.03008
G1 X115.766 Y91.209 E.06837
; printing object side2.stl id:0 copy 0
;WIPE_START
G1 F8640
G1 X119.058 Y91.209 E-.76
;WIPE_END
G1 E-.04 F2100
G1 Z1 F720
G1 X134.888 Y94.218 F10800
G1 Z.6 F720
G1 E.8 F2100
M204 S800
;TYPE:Perimeter
;WIDTH:0.449999
G1 F2700
G1 X114.218 Y114.888 E.98948
G1 X114.218 Y94.218 E.69967
M73 P17 R5
M73 Q17 S5
G1 X134.828 Y94.218 E.69764
M204 S1000
;WIPE_START
M73 Q18 S5
G1 F8640
M73 P18 R5
G1 X132.504 Y96.549 E-.76
;WIPE_END
G1 E-.04 F2100
G1 Z1 F720
G1 X135.871 Y93.811 F10800
G1 Z.6 F720
G1 E.8 F2100
M204 S800
;TYPE:External perimeter
G1 F1500
G1 X113.811 Y115.871 E1.05601
G1 X113.811 Y93.811 E.74671
G1 X135.811 Y93.811 E.74468
M204 S1000
G1 X135.767 Y93.424 F10800
;WIPE_START
G1 F8640
G1 X133.487 Y96.141 E-.76
;WIPE_END
G1 E-.04 F2100
G1 Z1 F720
G1 X133.555 Y94.34 F10800
G1 Z.6 F720
G1 E.8 F2100
;TYPE:Solid infill
;WIDTH:0.454652
M73 Q19 S5
G1 F4800
G1 X133.945 Y94.73 E.01886
G1 X133.654 Y95.021 E.0141
G1 X133.156 Y94.523 E.02409
G1 X132.574 Y94.523 E.01993
G1 X133.362 Y95.312 E.03819
G1 X133.071 Y95.603 E.0141
G1 X131.991 Y94.523 E.05228
G1 X131.409 Y94.523 E.01993
M73 P19 R5
G1 X132.78 Y95.894 E.06638
G1 X132.489 Y96.185 E.0141
G1 X130.827 Y94.523 E.08047
G1 X130.245 Y94.523 E.01993
G1 X132.198 Y96.476 E.09457
G1 X131.907 Y96.768 E.0141
G1 X129.662 Y94.523 E.10867
G1 X129.08 Y94.523 E.01993
G1 X131.616 Y97.059 E.12276
G1 X131.324 Y97.35 E.0141
G1 X128.498 Y94.523 E.13686
G1 X127.916 Y94.523 E.01993
G1 X131.033 Y97.641 E.15095
G1 X130.742 Y97.932 E.0141
G1 X127.333 Y94.523 E.16505
G1 X126.751 Y94.523 E.01993
G1 X130.451 Y98.223 E.17915
G1 X130.16 Y98.514 E.0141
G1 X126.169 Y94.523 E.19324
G1 X125.586 Y94.523 E.01993
G1 X129.869 Y98.806 E.20734
G1 X129.578 Y99.097 E.0141
G1 X125.004 Y94.523 E.22143
G1 X124.422 Y94.523 E.01993
G1 X129.286 Y99.388 E.23553
G1 X128.995 Y99.679 E.0141
G1 X123.84 Y94.523 E.24963
G1 X123.257 Y94.523 E.01993
G1 X128.704 Y99.97 E.26372
G1 X128.413 Y100.261 E.0141
