; generated by PrusaSlicer 2.5.0+win64 on 2022-11-19 at 15:19:23 UTC


;
;
; 

; external perimeters extrusion width = 0.45mm
; perimeters extrusion width = 0.45mm
; infill extrusion width = 0.45mm
; solid infill extrusion width = 0.45mm
; top infill extrusion width = 0.40mm
; first layer extrusion width = 0.42mm

M73 P0 R7
M73 Q0 S7
M201 X1000 Y1000 Z200 E5000 ; sets maximum accelerations, mm/sec^2
M203 X200 Y200 Z12 E120 ; sets maximum feedrates, mm / sec
M204 P1250 R1250 T1250 ; sets acceleration (P, T) and retract acceleration (R), mm/sec^2
M205 X8.00 Y8.00 Z0.40 E4.50 ; sets the jerk limits, mm/sec
M205 S0 T0 ; sets the minimum extruding and travel feed rate, mm/sec
M107
;TYPE:Custom
M862.3 P "MK3" ; printer model check
M862.1 P0.4 ; nozzle diameter check
M115 U3.11.0 ; tell printer latest fw version
G90 ; use absolute coordinates
M83 ; extruder relative mode
M104 S215 ; set extruder temp
M140 S60 ; set bed temp
M190 S60 ; wait for bed temp
M109 S215 ; wait for extruder temp
G28 W ; home all without mesh bed level
G80 ; mesh bed leveling

G1 Z0.2 F720
G1 Y-3 F1000 ; go outside print area
G92 E0
G1 X60 E9 F1000 ; intro line
G1 X100 E12.5 F1000 ; intro line

G92 E0
M221 S95

; Don't change E values below. Excessive value can damage the printer.
M907 E430 ; set extruder motor current
G21 ; set units to millimeters
G90 ; use absolute coordinates
M83 ; use relative distances for extrusion
M900 K0.05 ; Filament gcode LA 1.5
M900 K30 ; Filament gcode LA 1.0
M107
;LAYER_CHANGE
;Z:0.2
;HEIGHT:0.2
;BEFORE_LAYER_CHANGE
G92 E0.0
;0.2


G1 E-.8 F2100
M73 P1 R7
M73 Q1 S7
G1 Z.4 F720
;AFTER_LAYER_CHANGE
;0.2
G1 X112.562 Y88.411 F10800
G1 Z.2 F720
G1 E.8 F2100
M204 S800
;TYPE:Skirt/Brim
;WIDTH:0.42
G1 F1200
G1 X113.628 Y87.398 E.04612
G1 X115.064 Y87.078 E.04612
G1 X116.871 Y87.881 E.062
G1 X139.699 Y110.71 E1.01225
G1 X140.424 Y111.99 E.04612
M73 P2 R7
M73 Q2 S7
G1 X140.386 Y113.46 E.04612
G1 X139.598 Y114.701 E.04612
G1 X137.752 Y115.411 E.062
G1 X114.923 Y115.411 E.71577
G1 X113.506 Y115.018 E.04612
G1 X112.493 Y113.952 E.04612
G1 X112.169 Y112.657 E.04186
G1 X112.169 Y89.829 E.71577
G1 X112.546 Y88.469 E.04424
M204 S1000
G1 X112.92 Y88.581 F10800
M204 S800
G1 F1200
G1 X112.938 Y88.522 E.00195
G1 X113.984 Y87.645 E.04278
G1 X115.339 Y87.488 E.04278
G1 X116.604 Y88.148 E.04474
G1 X139.433 Y110.976 E1.01225
G1 X140.08 Y112.177 E.04278
M73 P3 R7
M73 Q3 S7
G1 X139.96 Y113.536 E.04278
G1 X139.113 Y114.606 E.04278
G1 X137.752 Y115.034 E.04474
G1 X114.923 Y115.034 E.71577
G1 X113.616 Y114.643 E.04278
G1 X112.74 Y113.597 E.04278
G1 X112.546 Y112.657 E.03008
G1 X112.546 Y89.829 E.71577
G1 X112.903 Y88.639 E.03895
M204 S1000
; printing object side1.stl id:0 copy 0
;WIPE_START
G1 F8640
G1 X112.938 Y88.522 E-.0282
G1 X113.984 Y87.645 E-.31505
G1 X115.339 Y87.488 E-.31505
G1 X115.73 Y87.692 E-.1017
;WIPE_END
G1 E-.04 F2100
G1 Z.6 F720
G1 X135.97 Y111.919 F10800
G1 Z.2 F720
G1 E.8 F2100
M204 S800
;TYPE:Perimeter
;WIDTH:0.419999
M73 Q4 S7
G1 F1200
G1 X135.784 Y111.897 E.00589
G1 X134.775 Y111.87 E.03166
G1 X115.71 Y111.87 E.59774
G1 X115.71 Y92.791 E.59822
M73 P4 R6
M73 Q4 S6
G1 X115.661 Y91.607 E.03715
G1 X115.886 Y91.884 E.0112
G1 X116.581 Y92.599 E.03127
G1 X135.09 Y111.108 E.82072
G1 X135.926 Y111.879 E.03565
M204 S1000
;WIPE_START
G1 F8640
G1 X135.784 Y111.897 E-.03315
G1 X134.775 Y111.87 E-.23315
G1 X132.636 Y111.87 E-.4937
;WIPE_END
G1 E-.04 F2100
G1 Z.6 F720
G1 X137.243 Y112.446 F10800
G1 Z.2 F720
G1 E.8 F2100
M204 S800
;TYPE:External perimeter
G1 F1200
G1 X136.781 Y112.447 E.01448
G1 X136.292 Y112.344 E.01568
G1 X135.774 Y112.274 E.0164
G1 X134.777 Y112.247 E.03126
G1 X115.333 Y112.247 E.60964
G1 X115.333 Y92.801 E.60972
M73 P5 R6
M73 Q5 S6
G1 X115.309 Y91.913 E.02786
G1 X115.252 Y91.398 E.01625
G1 X115.137 Y90.818 E.01853
G1 X115.133 Y90.375 E.01388
G1 X115.566 Y90.781 E.01859
G1 X115.832 Y91.217 E.01602
G1 X116.156 Y91.621 E.01624
G1 X116.846 Y92.331 E.03103
G1 X135.357 Y110.841 E.8208
G1 X136.105 Y111.548 E.03225
G1 X136.901 Y112.11 E.03055
G1 X137.201 Y112.404 E.01318
M204 S1000
G1 X136.853 Y112.358 F10800
;WIPE_START
G1 F8640
G1 X136.781 Y112.447 E-.09728
G1 X136.292 Y112.344 E-.11548
G1 X135.774 Y112.274 E-.12077
G1 X134.777 Y112.247 E-.23023
G1 X133.927 Y112.247 E-.19624
;WIPE_END
G1 E-.04 F2100
G1 Z.6 F720
G1 X115.822 Y92.743 F10800
G1 Z.2 F720
G1 E.8 F2100
M204 S800
;TYPE:Solid infill
;WIDTH:0.422357
G1 F1200
G1 X134.666 Y111.587 E.84081
G1 X134.129 Y111.587 E.01693
M73 P6 R6
M73 Q6 S6
G1 X115.993 Y93.451 E.80922
G1 X115.993 Y93.988 E.01693
G1 X133.593 Y111.587 E.78528
G1 X133.056 Y111.587 E.01693
G1 X115.993 Y94.524 E.76133
G1 X115.993 Y95.061 E.01693
M73 P7 R6
M73 Q7 S6
G1 X132.519 Y111.587 E.73739
G1 X131.983 Y111.587 E.01693
G1 X115.993 Y95.598 E.71345
G1 X115.993 Y96.134 E.01693
G1 X131.446 Y111.587 E.6895
G1 X130.91 Y111.587 E.01693
G1 X115.993 Y96.671 E.66556
G1 X115.993 Y97.207 E.01693
M73 P8 R6
M73 Q8 S6
G1 X130.373 Y111.587 E.64162
G1 X129.836 Y111.587 E.01693
G1 X115.993 Y97.744 E.61767
G1 X115.993 Y98.281 E.01693
G1 X129.3 Y111.587 E.59373
G1 X128.763 Y111.587 E.01693
G1 X115.993 Y98.817 E.56979
G1 X115.993 Y99.354 E.01693
M73 P9 R6
M73 Q9 S6
G1 X128.227 Y111.587 E.54584
G1 X127.69 Y111.587 E.01693
G1 X115.993 Y99.891 E.5219
G1 X115.993 Y100.427 E.01693
G1 X127.153 Y111.587 E.49796
G1 X126.617 Y111.587 E.01693
G1 X115.993 Y100.964 E.47401
G1 X115.993 Y101.5 E.01693
G1 X126.08 Y111.587 E.45007
G1 X125.544 Y111.587 E.01693
M73 Q10 S6
G1 X115.993 Y102.037 E.42613
G1 X115.993 Y102.574 E.01693
M73 P10 R6
G1 X125.007 Y111.587 E.40218
G1 X124.47 Y111.587 E.01693
G1 X115.993 Y103.11 E.37824
G1 X115.993 Y103.647 E.01693
G1 X123.934 Y111.587 E.3543
G1 X123.397 Y111.587 E.01693
G1 X115.993 Y104.183 E.33035
G1 X115.993 Y104.72 E.01693
G1 X122.86 Y111.587 E.30641
G1 X122.324 Y111.587 E.01693
G1 X115.993 Y105.257 E.28247
G1 X115.993 Y105.793 E.01693
G1 X121.787 Y111.587 E.25852
G1 X121.251 Y111.587 E.01693
M73 P11 R6
M73 Q11 S6
G1 X115.993 Y106.33 E.23458
G1 X115.993 Y106.866 E.01693
G1 X120.714 Y111.587 E.21064
G1 X120.177 Y111.587 E.01693
G1 X115.993 Y107.403 E.18669
G1 X115.993 Y107.94 E.01693
G1 X119.641 Y111.587 E.16275
G1 X119.104 Y111.587 E.01693
G1 X115.993 Y108.476 E.13881
G1 X115.993 Y109.013 E.01693
G1 X118.568 Y111.587 E.11486
G1 X118.031 Y111.587 E.01693
G1 X115.993 Y109.55 E.09092
G1 X115.993 Y110.086 E.01693
G1 X117.494 Y111.587 E.06698
G1 X116.958 Y111.587 E.01693
G1 X115.993 Y110.623 E.04303
G1 X115.993 Y111.159 E.01693
G1 X116.591 Y111.757 E.02666
M204 S1000
; stop printing object side1.stl id:0 copy 0
M106 S84.15
;LAYER_CHANGE
;Z:0.4
;HEIGHT:0.2
;BEFORE_LAYER_CHANGE
G92 E0.0
;0.4


;WIPE_START
G1 F8640
G1 X115.993 Y111.159 E-.19512
G1 X115.993 Y110.623 E-.12391
G1 X116.958 Y111.587 E-.31493
G1 X117.494 Y111.587 E-.12391
G1 X117.488 Y111.581 E-.00214
;WIPE_END
G1 E-.04 F2100
G1 Z.6 F720
;AFTER_LAYER_CHANGE
;0.4
G1 X117.488 Y115.411 F10800
G1 Z.4 F720
G1 E.8 F2100
;TYPE:Skirt/Brim
;WIDTH:0.42
G1 F3000
G1 X114.923 Y115.411 E.0804
G1 X113.506 Y115.018 E.04612
G1 X112.493 Y113.952 E.04612
G1 X112.169 Y112.657 E.04186
G1 X112.169 Y89.829 E.71577
G1 X112.562 Y88.411 E.04612
G1 X113.628 Y87.398 E.04612
G1 X115.064 Y87.078 E.04612
G1 X116.871 Y87.881 E.062
G1 X139.699 Y110.71 E1.01225
G1 X140.424 Y111.99 E.04612
M73 P12 R6
M73 Q12 S6
G1 X140.386 Y113.46 E.04612
G1 X139.598 Y114.701 E.04612
G1 X137.752 Y115.411 E.062
G1 X117.548 Y115.411 E.63348
G1 X117.548 Y115.034 F10800
G1 F3000
G1 X114.923 Y115.034 E.08228
G1 X113.616 Y114.643 E.04278
G1 X112.74 Y113.597 E.04278
G1 X112.546 Y112.657 E.03008
G1 X112.546 Y89.829 E.71577
G1 X112.938 Y88.522 E.04278
G1 X113.984 Y87.645 E.04278
G1 X115.339 Y87.488 E.04278
G1 X116.604 Y88.148 E.04474
G1 X139.433 Y110.976 E1.01225
G1 X140.08 Y112.177 E.04278
G1 X139.96 Y113.536 E.04278
G1 X139.113 Y114.606 E.04278
G1 X137.752 Y115.034 E.04474
G1 X117.608 Y115.034 E.6316
; printing object side1.stl id:0 copy 0
;WIPE_START
G1 F8640
G1 X114.923 Y115.034 E-.61983
G1 X114.342 Y114.86 E-.14017
;WIPE_END
G1 E-.04 F2100
G1 Z.8 F720
G1 X136.226 Y112.025 F10800
G1 Z.4 F720
G1 E.8 F2100
M204 S800
;TYPE:Perimeter
;WIDTH:0.449999
G1 F2700
G1 X115.555 Y112.025 E.69967
G1 X115.555 Y91.355 E.69967
G1 X136.183 Y111.983 E.98745
M204 S1000
;WIPE_START
M73 P13 R6
M73 Q13 S6
G1 F8640
G1 X132.892 Y111.989 E-.76
;WIPE_END
G1 E-.04 F2100
G1 Z.8 F720
G1 X137.209 Y112.432 F10800
G1 Z.4 F720
G1 E.8 F2100
M204 S800
;TYPE:External perimeter
G1 F1500
G1 X115.148 Y112.432 E.74671
G1 X115.148 Y90.372 E.74671
G1 X137.166 Y112.39 E1.05398
M204 S1000
G1 X137.409 Y112.086 F10800
;WIPE_START
M73 Q14 S6
G1 F8640
G1 X133.875 Y112.396 E-.76
;WIPE_END
G1 E-.04 F2100
M73 P14 R6
G1 Z.8 F720
G1 X135.412 Y111.384 F10800
G1 Z.4 F720
G1 E.8 F2100
;TYPE:Solid infill
;WIDTH:0.454652
G1 F4800
G1 X135.076 Y111.72 E.01627
G1 X134.494 Y111.72 E.01993
G1 X134.991 Y111.222 E.02409
G1 X134.7 Y110.931 E.0141
G1 X133.911 Y111.72 E.03819
G1 X133.329 Y111.72 E.01993
G1 X134.409 Y110.64 E.05228
G1 X134.118 Y110.349 E.0141
G1 X132.747 Y111.72 E.06638
G1 X132.165 Y111.72 E.01993
G1 X133.827 Y110.058 E.08047
G1 X133.536 Y109.766 E.0141
G1 X131.582 Y111.72 E.09457
G1 X131 Y111.72 E.01993
G1 X133.244 Y109.475 E.10867
G1 X132.953 Y109.184 E.0141
G1 X130.418 Y111.72 E.12276
G1 X129.835 Y111.72 E.01993
G1 X132.662 Y108.893 E.13686
G1 X132.371 Y108.602 E.0141
G1 X129.253 Y111.72 E.15095
G1 X128.671 Y111.72 E.01993
G1 X132.08 Y108.311 E.16505
G1 X131.789 Y108.02 E.0141
G1 X128.089 Y111.72 E.17915
G1 X127.506 Y111.72 E.01993
G1 X131.498 Y107.728 E.19324
G1 X131.206 Y107.437 E.0141
G1 X126.924 Y111.72 E.20734
G1 X126.342 Y111.72 E.01993
G1 X130.915 Y107.146 E.22143
G1 X130.624 Y106.855 E.0141
G1 X125.759 Y111.72 E.23553
G1 X125.177 Y111.72 E.01993
G1 X130.333 Y106.564 E.24963
G1 X130.042 Y106.273 E.0141
G1 X124.595 Y111.72 E.26372
G1 X124.013 Y111.72 E.01993
G1 X129.751 Y105.982 E.27782
G1 X129.46 Y105.69 E.0141
G1 X123.43 Y111.72 E.29191
G1 X122.848 Y111.72 E.01993
G1 X129.168 Y105.399 E.30601
G1 X128.877 Y105.108 E.0141
G1 X122.266 Y111.72 E.32011
G1 X121.684 Y111.72 E.01993
G1 X128.586 Y104.817 E.3342
G1 X128.295 Y104.526 E.0141
G1 X121.101 Y111.72 E.3483
G1 X120.519 Y111.72 E.01993
G1 X128.004 Y104.235 E.36239
G1 X127.713 Y103.944 E.0141
M73 Q15 S6
G1 X119.937 Y111.72 E.37649
G1 X119.354 Y111.72 E.01993
M73 P15 R6
G1 X127.422 Y103.652 E.39059
G1 X127.13 Y103.361 E.0141
G1 X118.772 Y111.72 E.40468
G1 X118.19 Y111.72 E.01993
G1 X126.839 Y103.07 E.41878
G1 X126.548 Y102.779 E.0141
G1 X117.608 Y111.72 E.43287
G1 X117.025 Y111.72 E.01993
G1 X126.257 Y102.488 E.44697
G1 X125.966 Y102.197 E.0141
G1 X116.443 Y111.72 E.46106
G1 X115.861 Y111.72 E.01993
G1 X125.675 Y101.906 E.47516
G1 X125.384 Y101.614 E.0141
G1 X115.861 Y111.137 E.46106
G1 X115.861 Y110.555 E.01993
G1 X125.093 Y101.323 E.44697
G1 X124.801 Y101.032 E.0141
G1 X115.861 Y109.973 E.43287
G1 X115.861 Y109.39 E.01993
G1 X124.51 Y100.741 E.41877
G1 X124.219 Y100.45 E.0141
G1 X115.861 Y108.808 E.40468
G1 X115.861 Y108.226 E.01993
G1 X123.928 Y100.159 E.39058
G1 X123.637 Y99.868 E.0141
G1 X115.861 Y107.644 E.37649
G1 X115.861 Y107.061 E.01993
G1 X123.346 Y99.577 E.36239
G1 X123.055 Y99.285 E.0141
G1 X115.861 Y106.479 E.3483
G1 X115.861 Y105.897 E.01993
G1 X122.763 Y98.994 E.3342
G1 X122.472 Y98.703 E.0141
M73 Q16 S6
G1 X115.861 Y105.315 E.3201
G1 X115.861 Y104.732 E.01993
G1 X122.181 Y98.412 E.30601
G1 X121.89 Y98.121 E.0141
M73 P16 R6
G1 X115.861 Y104.15 E.29191
G1 X115.861 Y103.568 E.01993
G1 X121.599 Y97.83 E.27782
G1 X121.308 Y97.539 E.0141
G1 X115.861 Y102.985 E.26372
G1 X115.861 Y102.403 E.01993
G1 X121.017 Y97.247 E.24962
G1 X120.725 Y96.956 E.0141
G1 X115.861 Y101.821 E.23553
G1 X115.861 Y101.239 E.01993
G1 X120.434 Y96.665 E.22143
G1 X120.143 Y96.374 E.0141
G1 X115.861 Y100.656 E.20734
G1 X115.861 Y100.074 E.01993
G1 X119.852 Y96.083 E.19324
G1 X119.561 Y95.792 E.0141
G1 X115.861 Y99.492 E.17914
G1 X115.861 Y98.91 E.01993
G1 X119.27 Y95.501 E.16505
G1 X118.979 Y95.209 E.0141
G1 X115.861 Y98.327 E.15095
G1 X115.861 Y97.745 E.01993
G1 X118.687 Y94.918 E.13686
G1 X118.396 Y94.627 E.0141
G1 X115.861 Y97.163 E.12276
G1 X115.861 Y96.58 E.01993
G1 X118.105 Y94.336 E.10866
G1 X117.814 Y94.045 E.0141
G1 X115.861 Y95.998 E.09457
G1 X115.861 Y95.416 E.01993
G1 X117.523 Y93.754 E.08047
G1 X117.232 Y93.463 E.0141
G1 X115.861 Y94.834 E.06638
G1 X115.861 Y94.251 E.01993
G1 X116.941 Y93.171 E.05228
G1 X116.649 Y92.88 E.0141
G1 X115.861 Y93.669 E.03819
G1 X115.861 Y93.087 E.01993
G1 X116.358 Y92.589 E.02409
G1 X116.067 Y92.298 E.0141
G1 X115.678 Y92.688 E.01886
; stop printing object side1.stl id:0 copy 0
M106 S170.85
;LAYER_CHANGE
;Z:0.6
;HEIGHT:0.2
;BEFORE_LAYER_CHANGE
G92 E0.0
;0.6


;WIPE_START
G1 F8640
G1 X116.067 Y92.298 E-.12722
G1 X116.358 Y92.589 E-.09507
G1 X115.861 Y93.087 E-.16247
G1 X115.861 Y93.669 E-.13445
G1 X116.598 Y92.932 E-.24079
;WIPE_END
G1 E-.04 F2100
G1 Z.8 F720
;AFTER_LAYER_CHANGE
;0.6
G1 X119.26 Y90.27 F10800
G1 Z.6 F720
G1 E.8 F2100
;TYPE:Skirt/Brim
;WIDTH:0.42
G1 F3000
G1 X139.699 Y110.71 E.90632
G1 X140.424 Y111.99 E.04612
G1 X140.386 Y113.46 E.04612
M73 Q17 S6
G1 X139.598 Y114.701 E.04612
G1 X137.752 Y115.411 E.062
G1 X114.923 Y115.411 E.71577
G1 X113.506 Y115.018 E.04612
M73 P17 R6
G1 X112.493 Y113.952 E.04612
G1 X112.169 Y112.657 E.04186
G1 X112.169 Y89.829 E.71577
G1 X112.562 Y88.411 E.04612
G1 X113.628 Y87.398 E.04612
G1 X115.064 Y87.078 E.04612
G1 X116.871 Y87.881 E.062
G1 X119.217 Y90.228 E.10405
G1 X118.951 Y90.494 F10800
G1 F3000
G1 X139.433 Y110.976 E.9082
G1 X140.08 Y112.177 E.04278
G1 X139.96 Y113.536 E.04278
G1 X139.113 Y114.606 E.04278
G1 X137.752 Y115.034 E.04474
G1 X114.923 Y115.034 E.71577
G1 X113.616 Y114.643 E.04278
G1 X112.74 Y113.597 E.04278
G1 X112.546 Y112.657 E.03008
G1 X112.546 Y89.829 E.71577
G1 X112.938 Y88.522 E.04278
M73 P17 R5
G1 X113.984 Y87.645 E.04278
G1 X115.339 Y87.488 E.04278
G1 X116.604 Y88.148 E.04474
G1 X118.908 Y90.452 E.10217
; printing object side1.stl id:0 copy 0
;WIPE_START
G1 F8640
G1 X121.236 Y92.779 E-.76
;WIPE_END
G1 E-.04 F2100
M73 Q17 S5
G1 Z1 F720
G1 X136.226 Y112.025 F10800
G1 Z.6 F720
G1 E.8 F2100
M204 S800
;TYPE:Perimeter
;WIDTH:0.449999
G1 F2700
G1 X115.555 Y112.025 E.69967
G1 X115.555 Y91.355 E.69967
M73 P18 R5
M73 Q18 S5
G1 X136.183 Y111.983 E.98745
M204 S1000
;WIPE_START
G1 F8640
G1 X132.892 Y111.989 E-.76
;WIPE_END
G1 E-.04 F2100
G1 Z1 F720
G1 X137.209 Y112.432 F10800
G1 Z.6 F720
G1 E.8 F2100
M204 S800
;TYPE:External perimeter
G1 F1500
G1 X115.148 Y112.432 E.74671
G1 X115.148 Y90.372 E.74671
G1 X137.166 Y112.39 E1.05398
M204 S1000
G1 X137.409 Y112.086 F10800
;WIPE_START
M73 P19 R5
M73 Q19 S5
G1 F8640
G1 X133.875 Y112.396 E-.76
;WIPE_END
G1 E-.04 F2100
G1 Z1 F720
G1 X115.678 Y91.911 F10800
G1 Z.6 F720
G1 E.8 F2100
;TYPE:Solid infill
;WIDTH:0.453504
G1 F4800
G1 X135.486 Y111.72 E.95639
G1 X134.906 Y111.72 E.01982
G1 X115.861 Y92.675 E.91951
G1 X115.861 Y93.256 E.01982
G1 X134.325 Y111.72 E.89148
G1 X133.744 Y111.72 E.01982
G1 X115.861 Y93.836 E.86344
G1 X115.861 Y94.417 E.01982
G1 X133.164 Y111.72 E.83541
G1 X132.583 Y111.72 E.01982
G1 X115.861 Y94.997 E.80737
G1 X115.861 Y95.578 E.01982
G1 X132.002 Y111.72 E.77934
G1 X131.422 Y111.72 E.01982
G1 X115.861 Y96.159 E.7513
G1 X115.861 Y96.739 E.01982
M73 Q20 S5
G1 X130.841 Y111.72 E.72327
G1 X130.26 Y111.72 E.01982
M73 P20 R5
G1 X115.861 Y97.32 E.69523
G1 X115.861 Y97.901 E.01982
G1 X129.68 Y111.72 E.6672
G1 X129.099 Y111.72 E.01982
G1 X115.861 Y98.481 E.63916
G1 X115.861 Y99.062 E.01982
G1 X128.518 Y111.72 E.61113
G1 X127.938 Y111.72 E.01982
G1 X115.861 Y99.643 E.58309
G1 X115.861 Y100.223 E.01982
G1 X127.357 Y111.72 E.55506
G1 X126.776 Y111.72 E.01982
G1 X115.861 Y100.804 E.52702
G1 X115.861 Y101.385 E.01982
G1 X126.196 Y111.72 E.49899
G1 X125.615 Y111.72 E.01982
G1 X115.861 Y101.965 E.47095
G1 X115.861 Y102.546 E.01982
G1 X125.034 Y111.72 E.44292
G1 X124.454 Y111.72 E.01982
G1 X115.861 Y103.127 E.41488
G1 X115.861 Y103.707 E.01982
G1 X123.873 Y111.72 E.38685
G1 X123.293 Y111.72 E.01982
G1 X115.861 Y104.288 E.35881
G1 X115.861 Y104.869 E.01982
